X: 2
T: The Coalminer's
M: C|
L: 1/8
R: reel
K: Dmaj
"D"A,DFD "A"E2EF|"D"ABAF "A"EDB,D|"D"A,DFD "Bm"EDFA|"Em"dBAF "A"EDB,D|
"D"A,DFD "A"EDEF|"D"ABAF "A"EDB,D|"D"A,DFD "Em"EDFA|1 "A"dBAF "D"D3B,:|2 "A"dBAF "D"D2Bc||
|:"D"~d3B A2dB|A2FD "A"EDB,D|"D"~d3B "Bm"ABde|"Em"fedf "A"e2de|
"Bm"fd (3ddd edBd|"D"ABAF "A"EDB,D|"D"A,DFD "Em"EDFA| "A"dBAF [1"D"D2 (3ABc:|[2"D"D4|]

